X: 7224
T: Clais An Adhmid
R: reel
M: 4/4
K: Dmajor
|:g|fgec dcAB|=c2 Gc efge|fgec dcAB|=cAGE =CDEG|
AD ~D2EDEG|AGAB =c2 eg|fgec dcAB|1 cAec d3:|2 cAec d2 (3ABc||
|:d2 ad fdad|d2 ad d=cAc|d2 ad fdad|d=cAF G2 AB|
=c2 Bc AGED|=C3E G2 EG|FAde fgec|1 Addc d2 (3ABc:|2 Addc d3||

